storage/app/icons/phosphoricons/regular/google-cardboard-logo.svg

<svg xmlns="http://www.w3.org/2000/svg" fill="currentColor" viewBox="0 0 256 256"><path d="M224 48H32a16 16 0 0 0-16 16v128a16 16 0 0 0 16 16h64a8 8 0 0 0 5.66-2.34L128 179.31l26.34 26.35A8 8 0 0 0 160 208h64a16 16 0 0 0 16-16V64a16 16 0 0 0-16-16m0 144h-60.69l-24-24a16 16 0 0 0-22.62 0l-24 24H32V64h192ZM80 160a32 32 0 1 0-32-32 32 32 0 0 0 32 32m0-48a16 16 0 1 1-16 16 16 16 0 0 1 16-16m96 48a32 32 0 1 0-32-32 32 32 0 0 0 32 32m0-48a16 16 0 1 1-16 16 16 16 0 0 1 16-16"/></svg>

<svg xmlns="http://www.w3.org/2000/svg" viewBox="0 0 256 256" fill="currentColor"><path d="M224,48H32A16,16,0,0,0,16,64V192a16,16,0,0,0,16,16H96a8,8,0,0,0,5.66-2.34L128,179.31l26.34,26.35A8,8,0,0,0,160,208h64a16,16,0,0,0,16-16V64A16,16,0,0,0,224,48Zm0,144H163.31l-24-24a16,16,0,0,0-22.62,0l-24,24H32V64H224ZM80,160a32,32,0,1,0-32-32A32,32,0,0,0,80,160Zm0-48a16,16,0,1,1-16,16A16,16,0,0,1,80,112Zm96,48a32,32,0,1,0-32-32A32,32,0,0,0,176,160Zm0-48a16,16,0,1,1-16,16A16,16,0,0,1,176,112Z"/></svg>
